X:241
T:B241-  Jenny my blithest maid [defect. 12th meas]
Q:1/4=120
L:1/4
M:3/4
K:F
Acf|g3/2f/2d|d/2fd/2 f/2d/2|c/2A/2 G/2F/2G|\
Acf|g3/2f/2d|b/2/a/2 g/2f/2 g/2a/2|dff||\
a3/2b/2 b/2a/2|ggd|g/2a/2 g/2e/2 d3/4c/4|c(d/2e/2) d/2c/2|\
f3/2d/2cA|Ggg|a/2g/4f/4 g/2d/2 e/2c/2|Aff|]

